storage/app/icons/phosphoricons/fill/lock-laminated-open-fill.svg

<svg xmlns="http://www.w3.org/2000/svg" fill="currentColor" viewBox="0 0 256 256"><path d="M208 80H96V56a32 32 0 0 1 32-32c15.37 0 29.2 11 32.16 25.59a8 8 0 0 0 15.68-3.18C171.32 24.15 151.2 8 128 8a48.05 48.05 0 0 0-48 48v24H48a16 16 0 0 0-16 16v112a16 16 0 0 0 16 16h160a16 16 0 0 0 16-16V96a16 16 0 0 0-16-16m-24 112H72a8 8 0 0 1 0-16h112a8 8 0 0 1 0 16m0-32H72a8 8 0 0 1 0-16h112a8 8 0 0 1 0 16m0-32H72a8 8 0 0 1 0-16h112a8 8 0 0 1 0 16"/></svg>

<svg xmlns="http://www.w3.org/2000/svg" viewBox="0 0 256 256" fill="currentColor"><path d="M208,80H96V56a32,32,0,0,1,32-32c15.37,0,29.2,11,32.16,25.59a8,8,0,0,0,15.68-3.18C171.32,24.15,151.2,8,128,8A48.05,48.05,0,0,0,80,56V80H48A16,16,0,0,0,32,96V208a16,16,0,0,0,16,16H208a16,16,0,0,0,16-16V96A16,16,0,0,0,208,80ZM184,192H72a8,8,0,0,1,0-16H184a8,8,0,0,1,0,16Zm0-32H72a8,8,0,0,1,0-16H184a8,8,0,0,1,0,16Zm0-32H72a8,8,0,0,1,0-16H184a8,8,0,0,1,0,16Z"/></svg>
